X: 43418
T: Y Derwydd
R: jig
M: 6/8
K: Cmajor
|:z|EFG GEG|AFA G3|ABc def|edc BAG|
EFG G2 G|AFA G2 G|ABc d2 f|[Gg][Aa][Bb] [c2c'2]:|
|:g|geg geg|fdf fdf|egf edc|B/c/dc BAG|
geg g2 g|fdf f2 f|edc Bcd|cGE [C2c2]:|

